X: 1
T: South Georgia Whaling Song
T: Cha till mis' a' seoladh
C: Donald MacMillan
S: printed copy of unknown origin in Concord Slow Scottish Session collection
R: waltz
Z: 2014 John Chambers <jc:trillian.mit.edu>
M: 3/4
L: 1/8
K: G
[|\
"G"G3GG2 | "Em"(B2A2)G2 | "Bm"(Bd3)e2 | "G"d6 | "C"g3fe2 | "G"(d2B2)d2 | "A7"(e2d2)B2 | "D7"A6 |
"G"G3GG2 | "Em"(B2A2)G2 | "Bm"(Bd3)e2 | "G"d6 | "C"g3fe2 | "D7"B(B3A2) | "G"G6 | G6 ||
||\
"C"g3fg2 | "C"e2(d2"Em"B2) | "D7"d2(e2B2) | "G"d6 | "C"g3fg2 | "C"e2(d2"Em"B2) | "A7"B2(A2G2) | "D7"A6 |
"G"G3GG2 | "Em"(B2A2)G2 | "Bm"(Bd3)e2 | "G"d6 | "C"g3fe2 | "D7"B(B3A2) | "G"G6 | G6 ||
